X:7
T:Emmanuelle
C:Fausto Papetti
M:6/4
L:1/8
K:C
Q:1/4=120
edc edc edc edc | f8 |
|1 BBBB e2 Bc-|c8 :|2 BBBB e2 BA-|A8-|A4 |]
|: (3e2d2e2 | f8-|f4 (3b2c'2d'2 | e8-| e4 |
(3c2B2A2 | d6 d_e-| e4 (3c2B2A2 | =e8-|e4 :|   

